X: 1
T: Peg McGrath's
M: 4/4
L: 1/8
R: reel
K: Dmaj
fafe ~d3B|AF~F2 ABde|~f3e dBAF|ABde fd~d2:|
fa~a2 abaf|g2fg edce|fa~a2 bf~f2|abag fd~d2|
fa~a2 abaf|g2fg edce|A2FA ABde|~f2eg fd~d2||
